icons/icn_candado_cerrado.svg

<svg width="24" xmlns="http://www.w3.org/2000/svg" height="24" id="screenshot-05423abe-7920-80cf-8006-8f9b9fa4defa" viewBox="0 0 24 24" xmlns:xlink="http://www.w3.org/1999/xlink" fill="none" version="1.1"><g id="shape-05423abe-7920-80cf-8006-8f9b9fa4defa"><g class="frame-container-wrapper"><g class="frame-container-blur"><g class="frame-container-shadows"><g fill="none"><g class="fills" id="fills-05423abe-7920-80cf-8006-8f9b9fa4defa"><rect rx="0" ry="0" x="0" y="0" width="24" height="24.000000000000455" transform="matrix(1, 0, 0, 1, 0, 0)" class="frame-background"/></g><g class="frame-children"><g id="shape-05423abe-7920-80cf-8006-8f9b90680a62" rx="0" ry="0"><g id="shape-05423abe-7920-80cf-8006-8f9b5b62533d" style="opacity: 1;"><g class="fills" id="fills-05423abe-7920-80cf-8006-8f9b5b62533d"><path d="M12.010519027709961,2.067138671875C9.312032699584961,2.067138671875,7.079122543334961,4.1871337890625,7.079122543334961,6.8209228515625L7.079122543334961,9.7215576171875C7.080343246459961,9.8123779296875,7.099386215209961,9.902587890625,7.133810043334961,9.98681640625L5.736104965209961,9.98681640625C5.540060043334961,9.98779296875,5.353780746459961,10.0662841796875,5.217061996459961,10.20458984375C5.079854965209961,10.343017578125,5.004171371459961,10.530517578125,5.004903793334961,10.7254638671875L5.004903793334961,21.2744140625C5.006856918334961,21.6771240234375,5.332296371459961,22.003173828125,5.736104965209961,22.0045166015625L18.28590965270996,22.0045166015625C18.48048973083496,22.006103515625,18.66798973083496,21.9293212890625,18.80739402770996,21.792236328125C18.94533348083496,21.6552734375,19.02419090270996,21.4691162109375,19.02419090270996,21.2744140625L19.02419090270996,10.7254638671875C19.02614402770996,10.5291748046875,18.94875144958496,10.3406982421875,18.81007957458496,10.2020263671875C18.67067527770996,10.06298828125,18.48244285583496,9.985595703125,18.28590965270996,9.98681640625L8.500997543334961,9.98681640625C8.532735824584961,9.90185546875,8.549093246459961,9.81201171875,8.548360824584961,9.7215576171875L8.548360824584961,6.8209228515625C8.548360824584961,5.0146484375,10.071798324584961,3.5361328125,12.010519027709961,3.5361328125C13.234640121459961,3.5361328125,14.297140121459961,4.1373291015625,14.911642074584961,5.0263671875C15.141378402709961,5.3583984375,15.597921371459961,5.44140625,15.931173324584961,5.2119140625C16.09132957458496,5.1019287109375,16.20119285583496,4.9326171875,16.23708152770996,4.7415771484375C16.27345848083496,4.5501708984375,16.23195457458496,4.3529052734375,16.12184715270996,4.1920166015625C15.233175277709961,2.906005859375,13.713644027709961,2.067138671875,12.010519027709961,2.067138671875ZM6.467794418334961,11.4559326171875L17.55348777770996,11.4559326171875L17.55348777770996,20.5435791015625L6.467794418334961,20.5435791015625Z" style="display: inline; stroke-linecap: square; stroke-linejoin: round; fill: rgb(0, 0, 0); fill-opacity: 1;"/></g></g></g></g></g></g></g></g></g></svg>

<svg fill="none" viewBox="0 0 24 24"><g class="frame-container-wrapper"><g class="frame-container-blur"><g class="frame-container-shadows"><g class="fills"><rect width="24" height="24" class="frame-background" rx="0" ry="0"/></g><g class="frame-children"><path fill="#000" d="M12.0105 2.0671c-2.6985 0-4.9314 2.12-4.9314 4.7538v2.9007a.7287.7287 0 0 0 .0547.2652H5.7361a.734.734 0 0 0-.7312.7387v10.549a.7331.7331 0 0 0 .7312.73h12.5498a.736.736 0 0 0 .5215-.2123.7305.7305 0 0 0 .2168-.5178v-10.549a.73.73 0 0 0-.2141-.5234.735.735 0 0 0-.5242-.2152H8.501a.7411.7411 0 0 0 .0474-.2652V6.8209c0-1.8063 1.5234-3.2848 3.4621-3.2848 1.2241 0 2.2866.6012 2.9011 1.4903.2298.332.6863.415 1.0196.1855a.735.735 0 0 0 .3059-.4703.7304.7304 0 0 0-.1153-.5496c-.8886-1.286-2.4082-2.1249-4.1113-2.1249ZM6.4678 11.456h11.0857v9.0877H6.4678Z" class="fills"/></g></g></g></g></svg>
